X:955
T: Fitzgerald's HP
T: Cornph\'iopa Mhic Ghearailt
S: B.Breathnach: "Ceol Rince na hEireann" II/305
Z: B.Black
L: 1/8
M: 4/4
R: hornpipe
K: G
DE/G/|A2 AB AGED|GABd edBd|efge dBGB|(3cBA (3BAG AGEG|
A2 AB AGED|GABd edBd|efge dBGB|1 AcBA G2 :|2 AcBA G2-G2 ||
g2 a/g/f/g/ a2 b/a/g/a/|b2 ba ge d2|efge dBGB|(3cBA (3BAG AGEG|
A2 AB AGED|GABd edBd|efge dBGB|AcBA G2 G2 :|

